src/icons/utility.svg

<svg width="11" height="8" viewBox="0 0 11 8" fill="none" xmlns="http://www.w3.org/2000/svg">
<path fill-rule="evenodd" clip-rule="evenodd" d="M7.46691 1.75692H10.1023C10.3447 1.75692 10.5415 1.9537 10.5415 2.19615V6.58845C10.5415 6.8309 10.3447 7.02768 10.1023 7.02768H6.58845V5.70999H3.95307V7.02768H0.43923C0.196775 7.02768 0 6.8309 0 6.58845V2.19615C0 1.9537 0.196775 1.75692 0.43923 1.75692H3.07461V0.43923C3.07461 0.196775 3.27138 0 3.51384 0H7.02768C7.27013 0 7.46691 0.196775 7.46691 0.43923V1.75692ZM3.95307 1.75692H6.58845V0.87846H3.95307V1.75692Z" fill="white"/>
</svg>

<svg width="11" height="8" fill="none" xmlns="http://www.w3.org/2000/svg"><path fill-rule="evenodd" clip-rule="evenodd" d="M7.467 1.757h2.635a.44.44 0 01.44.44v4.391a.44.44 0 01-.44.44H6.588V5.71H3.953v1.318H.44A.44.44 0 010 6.588V2.196a.44.44 0 01.44-.44h2.635V.44A.44.44 0 013.514 0h3.514a.44.44 0 01.439.44v1.317zm-3.514 0h2.635V.878H3.953v.879z" fill="#fff"/></svg>
